X:1
T:Ave Maria for Cello (Bach Gounod)
L:1/8
M:none
K:C
V:1 bass transpose=12 nm="Cello" snm="Vlc."
V:1
 E,8- | E,8 | F,8- | F,4 z2 F,2 | G,8- | G,4 !open!D,4 | E,8- | E,2 z2 z4 || !open!A,8- | %9
 A,2 A,,2 B,,2 C,2 | !open!D,6 E,2 | !open!D,4 z4 | G,8- | G,2 !open!G,,2 A,,2 B,,2 || %14
 C,6 !open!D,2 | C,4 z4 | C8- | C2 C,2 !open!D,2 E,2 | ^F,6 E,2 | !open!D,4 A,,4 | B,,8 | %21
 z4 !open!D,4 | E,8- | E,2 E,2 F,2 G,2 | !open!A,7 A,, | A,,4 z4 | !open!D,8- | %27
 D,2 !open!D,2 E,2 F,2 | G,8 | !open!G,,4 z4 || C,8- | C,2 C,2 !open!D,2 E,2 | F,8- | %33
 F,2 F,2 G,2 !open!A,2 | B,6 !open!A,2 | G,4 !open!D,4 | E,8- | E,2 z2 z4 | G,8 | E,4 z z2 E, | %40
 !open!A,8 | A,,4 z4 | !open!A,8 | C,4 z3 A, | C8 | ^D,4 z3 C | C8 | !open!D,4 z4 | !open!D,8- | %49
 D,2 !open!D,2 C,2 B,,2 | G,6 E,2 | C,4 z4 | F,8- | F,2 F,2 E,2 !open!D,2 | D6 B,2 | G,4 z4 | %56
 !open!A,8- | A,2 !open!A,2 B,2 C2 | E8- | E2 C2 G,2 E,2 | !open!D,8- | %61
 D,2 !open!A,2 B,2 !open!A,2 | G,2 D2 B,2 G,2 | F,2 !open!D,2 B,,2 !open!G,,2 | C,8- | C,8 | C,8 | %67
 z8 | G,8- | G,8 | C,8 |] %71

